X:1
T:Romance d amour (origianal) 
T:No. 13,  Op32
T:Maurice Ravel
T:Todos Los Derechos Reservados escuela de arte Copyright ©2019
%%score { 1 | ( 2 3 ) }
L:1/8
Q:1/4=120
M:4/4
K:G
V:1 treble nm="Piano, Left Hand" snm="Pno."
V:2 bass 
V:3 bass 
V:1
"^tocar a lo lang lang" .B2 .B2 .B2 .B2 | .A2 .G2 .G2 .F2 | .E2 .E2 .G2 .B2 | .e2 .e2 .e2 .e2 | %4
 .d2 .c2 .c2 .B2 | .A2 .A2 .B2 .c2 | .B2 .c2 .B2 .^d2 | .c2 .B2 .B2 .A2 | .G2 .G2 .F2 .E2 | %9
 .F2 .F2 .F2 .F2 | .G2 .F2 .E2 .E2 | .E2 E4 z2 | .B2 .B2 .B2 .B2 | .A2 .G2 .G2 .F2 | %14
 .E2 .E2 .G2 .B2 | .e2 .e2 .e2 .e2 | .d2 .c2 .c2 .B2 | .A2 .A2 .B2 .c2 | .B2 .c2 .B2 .^d2 | %19
 .c2 .B2 .B2 .A2 | .G2 .G2 .F2 .E2 | .F2 .F2 .F2 .F2 | .G2 .F2 .E2 .E2 | .E2 E4 z2 | %24
 .^G2 .G2 .G2 .G2 | .F2 .E2 .E2 .^D2 | .^D2 .D2 .=D2 .^D2 | .^c2 .c2 .c2 .c2 | .^d2 .^c2 .c2 .B2 | %29
 .B2 .B2 .^c2 .^d2 | .e2 .e2 .e2 .e2 | .^d2 .=d2 .^c2 .c2 | .^c2 .c2 .B2 .A2 | .^G2 .G2 .G2 .G2 | %34
 .A2 .F2 .E2 .E2 | .E2 E4 z2 | .^G2 .G2 .G2 .G2 | .F2 .E2 .E2 .^D2 | .^D2 .D2 .=D2 .^D2 | %39
 .^c2 .c2 .c2 .c2 | .^d2 .^c2 .c2 .B2 | .B2 .B2 .^c2 .^d2 | .e2 .e2 .e2 .e2 | .^d2 .=d2 .^c2 .c2 | %44
 .^c2 .c2 .B2 .A2 | .^G2 .G2 .G2 .G2 | .A2 .F2 .E2 .E2 | .E2 E4 z2 | .B2 .B2 .B2 .B2 | %49
 .A2 .G2 .G2 .F2 | .E2 .E2 .G2 .B2 | .e2 .e2 .e2 .e2 | .d2 .c2 .c2 .B2 | .A2 .A2 .B2 .c2 | %54
 .B2 .c2 .B2 .^d2 | .c2 .B2 .B2 .A2 | .G2 .G2 .F2 .E2 | .F2 .F2 .F2 .F2 | .G2 .F2 .E2 .E2 | %59
 .E2 E6 | E6 E2- | E4 z4 |] %62
V:2
 z G,B,G, B,G, z G, | B,G,B,G, z G,B,G, | B,G, z G, B,G,B,G, | z G,B,G, B,G, z G, | %4
 B,G,B,G,[K:treble] z CEC | EC z C ECEC | z ^DFD FD z D | F^DFD[K:bass] z G,B,G, | %8
 B,G, z G, B,G,B,G, | z A,B,A, B,A, z A, | B,A,B,A, E,G,B,,E, | G,,B,, [E,,G,B,]4 z2 | %12
 z G,B,G, B,G, z G, | B,G,B,G, z G,B,G, | B,G, z G, B,G,B,G, | z G,B,G, B,G, z G, | %16
 B,G,B,G,[K:treble] z CEC | EC z C ECEC | z ^DFD FD z D | F^DFD[K:bass] z G,B,G, | %20
 B,G, z G, B,G,B,G, | z A,B,A, B,A, z A, | B,A,B,A, E,G,B,,E, | G,,B,, [E,,G,B,]4 z2 | %24
 z ^G,B,G, B,G, z G, | B,^G,B,G, z A,B,A, | B,A, z A, B,A,B,A, | z A,B,A, B,A, z A, | %28
 B,A,B,A, z ^G,B,G, | B,^G, z G, B,G,B,G, | z ^G,B,G, B,G, z G, | B,^G,B,G, z ^C,E,C, | %32
 E,^C, z C, E,C,E,C, | z E,^G,E, G,E, z ^D, | A,^D,A,D, E,^G,B,,E, | ^G,,B,, [E,,^G,B,]4 z2 | %36
 z ^G,B,G, B,G, z G, | B,^G,B,G, z A,B,A, | B,A, z A, B,A,B,A, | z A,B,A, B,A, z A, | %40
 B,A,B,A, z ^G,B,G, | B,^G, z G, B,G,B,G, | z ^G,B,G, B,G, z G, | B,^G,B,G, z ^C,E,C, | %44
 E,^C, z C, E,C,E,C, | z E,^G,E, G,E, z ^D, | A,^D,A,D, E,^G,B,,E, | ^G,,B,, [E,,^G,B,]4 z2 | %48
 z G,B,G, B,G, z G, | B,G,B,G, z G,B,G, | B,G, z G, B,G,B,G, | z G,B,G, B,G, z G, | %52
 B,G,B,G,[K:treble] z CEC | EC z C ECEC | z ^DFD FD z D | F^DFD[K:bass] z G,B,G, | %56
 B,G, z G, B,G,B,G, | z A,B,A, B,A, z A, | B,A,B,A, E,G,B,,E, | G,,B,, [E,,G,B,]6 | [E,G,B,]6 z2 | %61
 z8 |] %62
V:3
 E,6 E,2- | E,4 E,4- | E,2 E,6 | E,6 E,2- | E,4[K:treble] A,4- | A,2 A,6 | B,6 B,2- | %7
 B,4[K:bass] E,4- | E,2 E,6 | ^D,6 D,2- | D,4 z4 | x8 | E,6 E,2- | E,4 E,4- | E,2 E,6 | E,6 E,2- | %16
 E,4[K:treble] A,4- | A,2 A,6 | B,6 B,2- | B,4[K:bass] E,4- | E,2 E,6 | ^D,6 D,2- | D,4 z4 | x8 | %24
 E,6 E,2- | E,4 F,4- | F,2 F,6 | ^D,6 D,2- | D,4 E,4- | E,2 E,6 | E,6 E,2- | E,4 A,,4- | %32
 A,,2 A,,6 | B,,6 B,,2- | B,,4 z4 | x8 | E,6 E,2- | E,4 F,4- | F,2 F,6 | ^D,6 D,2- | D,4 E,4- | %41
 E,2 E,6 | E,6 E,2- | E,4 A,,4- | A,,2 A,,6 | B,,6 B,,2- | B,,4 z4 | x8 | E,6 E,2- | E,4 E,4- | %50
 E,2 E,6 | E,6 E,2- | E,4[K:treble] A,4- | A,2 A,6 | B,6 B,2- | B,4[K:bass] E,4- | E,2 E,6 | %57
 ^D,6 D,2- | D,4 z4 | x8 | E,,4 .E,,2 [E,,E,G,B,]2- | [E,,E,G,B,]4 z4 |] %62

